images/fuse.svg

<svg height="250" viewBox="0 0 250 250" width="250" xmlns="http://www.w3.org/2000/svg" xmlns:xlink="http://www.w3.org/1999/xlink"><linearGradient id="a"><stop offset="0" stop-color="#b7fdbc"/><stop offset="1" stop-color="#fafd89"/></linearGradient><linearGradient id="b" gradientTransform="matrix(.155045 0 0 .15428 0 .042595)" gradientUnits="userSpaceOnUse" x1="797.384094" x2="808.551025" xlink:href="#a" y1="322.308197" y2="1301.270752"/><linearGradient id="c" gradientTransform="matrix(.155045 0 0 .15428 0 .042595)" gradientUnits="userSpaceOnUse" x1="812.14679" x2="800.979919" xlink:href="#a" y1="296.499786" y2="1301.518433"/><linearGradient id="d" gradientTransform="matrix(.155045 0 0 .15428 0 .042595)" gradientUnits="userSpaceOnUse" x1="807.627014" x2="800.182373" xlink:href="#a" y1="318.523285" y2="1301.20813"/><path d="m246.195312 125c0 66.605469-54.261718 120.597656-121.195312 120.597656s-121.195312-53.992187-121.195312-120.597656 54.261718-120.597656 121.195312-120.597656 121.195312 53.992187 121.195312 120.597656zm0 0" fill="#0a2336"/><path d="m124.308594 170.542969c-6.578125-.003907-13.089844-1.277344-19.179688-3.742188l-32.039062-12.929687-16.007813 7.09375c-4.335937 1.921875-6.28125 6.980468-4.347656 11.292968.902344 2.011719 2.546875 3.597657 4.597656 4.433594l50.097657 21.753906c10.878906 4.410157 23.054687 4.425782 33.945312.042969l50.320312-21.707031c5.15625-2.074219 7.640626-7.917969 5.550782-13.042969-1.023438-2.515625-3.023438-4.507812-5.550782-5.523437l-13.363281-5.40625-34.957031 13.996094c-6.054688 2.453124-12.527344 3.71875-19.066406 3.738281zm0 0" fill="url(#b)"/><path d="m191.71875 117.042969-17.019531-6.847657-31.308594 12.535157c-6.058594 2.433593-12.527344 3.6875-19.054687 3.695312-6.578126-.003906-13.089844-1.277343-19.179688-3.742187l-28.578125-11.53125-19.46875 8.625c-4.335937 1.925781-6.277344 6.984375-4.347656 11.296875.902343 2.011719 2.550781 3.597656 4.597656 4.429687l29.871094 12.113282 22.070312 9.125c9.609375 3.902343 20.371094 3.914062 29.992188.039062l24.335937-9.867188 28.097656-11.308593c5.148438-2.074219 7.632813-7.910157 5.546876-13.035157-1.023438-2.515624-3.027344-4.511718-5.554688-5.527343zm0 0" fill="url(#c)"/><path d="m191.71875 72.875-56.066406-22.570312c-7.179688-2.890626-15.234375-2.753907-22.304688.386718l-56.246094 24.882813c-4.332031 1.925781-6.277343 6.980469-4.34375 11.296875.902344 2.007812 2.546876 3.597656 4.597657 4.429687l33.410156 13.542969 18.519531 7.769531c9.609375 3.898438 20.371094 3.914063 29.992188.039063l20.597656-8.441406 31.828125-12.835938c5.136719-2.117188 7.574219-7.980469 5.445313-13.089844-1.019532-2.449218-2.972657-4.394531-5.429688-5.410156zm0 0" fill="url(#d)"/></svg>

<!-- Generator: Adobe Illustrator 24.2.3, SVG Export Plug-In . SVG Version: 6.00 Build 0)  -->
<svg xmlns="http://www.w3.org/2000/svg" xmlns:xlink="http://www.w3.org/1999/xlink" width="250px" height="250px" viewBox="0 0 250 250" version="1.1">
<defs>
<linearGradient id="linear0" gradientUnits="userSpaceOnUse" x1="797.384094" y1="322.308197" x2="808.551025" y2="1301.270752" gradientTransform="matrix(0.155045,0,0,0.15428,0,0.0425954)">
<stop offset="0" style="stop-color:rgb(71.764708%,99.215686%,73.725492%);stop-opacity:1;"/>
<stop offset="1" style="stop-color:rgb(98.039216%,99.215686%,53.725493%);stop-opacity:1;"/>
</linearGradient>
<linearGradient id="linear1" gradientUnits="userSpaceOnUse" x1="812.14679" y1="296.499786" x2="800.979919" y2="1301.518433" gradientTransform="matrix(0.155045,0,0,0.15428,0,0.0425954)">
<stop offset="0" style="stop-color:rgb(71.764708%,99.215686%,73.725492%);stop-opacity:1;"/>
<stop offset="1" style="stop-color:rgb(98.039216%,99.215686%,53.725493%);stop-opacity:1;"/>
</linearGradient>
<linearGradient id="linear2" gradientUnits="userSpaceOnUse" x1="807.627014" y1="318.523285" x2="800.182373" y2="1301.20813" gradientTransform="matrix(0.155045,0,0,0.15428,0,0.0425954)">
<stop offset="0" style="stop-color:rgb(71.764708%,99.215686%,73.725492%);stop-opacity:1;"/>
<stop offset="1" style="stop-color:rgb(98.039216%,99.215686%,53.725493%);stop-opacity:1;"/>
</linearGradient>
</defs>
<g id="surface1">
<path style=" stroke:none;fill-rule:nonzero;fill:rgb(3.921569%,13.725491%,21.176471%);fill-opacity:1;" d="M 246.195312 125 C 246.195312 191.605469 191.933594 245.597656 125 245.597656 C 58.066406 245.597656 3.804688 191.605469 3.804688 125 C 3.804688 58.394531 58.066406 4.402344 125 4.402344 C 191.933594 4.402344 246.195312 58.394531 246.195312 125 Z M 246.195312 125 "/>
<path style=" stroke:none;fill-rule:nonzero;fill:url(#linear0);" d="M 124.308594 170.542969 C 117.730469 170.539062 111.21875 169.265625 105.128906 166.800781 L 73.089844 153.871094 L 57.082031 160.964844 C 52.746094 162.886719 50.800781 167.945312 52.734375 172.257812 C 53.636719 174.269531 55.28125 175.855469 57.332031 176.691406 L 107.429688 198.445312 C 118.308594 202.855469 130.484375 202.871094 141.375 198.488281 L 191.695312 176.78125 C 196.851562 174.707031 199.335938 168.863281 197.246094 163.738281 C 196.222656 161.222656 194.222656 159.230469 191.695312 158.214844 L 178.332031 152.808594 L 143.375 166.804688 C 137.320312 169.257812 130.847656 170.523438 124.308594 170.542969 Z M 124.308594 170.542969 "/>
<path style=" stroke:none;fill-rule:nonzero;fill:url(#linear1);" d="M 191.71875 117.042969 L 174.699219 110.195312 L 143.390625 122.730469 C 137.332031 125.164062 130.863281 126.417969 124.335938 126.425781 C 117.757812 126.421875 111.246094 125.148438 105.15625 122.683594 L 76.578125 111.152344 L 57.109375 119.777344 C 52.773438 121.703125 50.832031 126.761719 52.761719 131.074219 C 53.664062 133.085938 55.3125 134.671875 57.359375 135.503906 L 87.230469 147.617188 L 109.300781 156.742188 C 118.910156 160.644531 129.671875 160.65625 139.292969 156.78125 L 163.628906 146.914062 L 191.726562 135.605469 C 196.875 133.53125 199.359375 127.695312 197.273438 122.570312 C 196.25 120.054688 194.246094 118.058594 191.71875 117.042969 Z M 191.71875 117.042969 "/>
<path style=" stroke:none;fill-rule:nonzero;fill:url(#linear2);" d="M 191.71875 72.875 L 135.652344 50.304688 C 128.472656 47.414062 120.417969 47.550781 113.347656 50.691406 L 57.101562 75.574219 C 52.769531 77.5 50.824219 82.554688 52.757812 86.871094 C 53.660156 88.878906 55.304688 90.46875 57.355469 91.300781 L 90.765625 104.84375 L 109.285156 112.613281 C 118.894531 116.511719 129.65625 116.527344 139.277344 112.652344 L 159.875 104.210938 L 191.703125 91.375 C 196.839844 89.257812 199.277344 83.394531 197.148438 78.285156 C 196.128906 75.835938 194.175781 73.890625 191.71875 72.875 Z M 191.71875 72.875 "/>
</g>
</svg>
